X: 1
T: I'm Not Fed Up With the Pacific Ocean
C: Ola B\"ackstr\"om
%R: air
S: email from Sally Mallast 2022-7-21
S: Fiddle Orchestra of Western Massachusetts 2022
Z: 2019 John Chambers <jc:trillian.mit.edu>
M: C
L: 1/8
K: D
% %continueall
% = = = = = = = = = =
V: 1 staves=2
"^A"|:\
"D"F3 (F- FD) EG | F3 (F- FD) EG | F2 (ED) C2 D2 | "G"B,4 (B,2 A,2) ||\
"D"F3 (F- FD) EG | F3 (F- FD) EG | F2 (ED) "A"CD EC | "D"D4  D4 :|
"^B"|:\
"D"A2 (GF) ED CD | "G"d2 (cd) BA (GF) | "D"A2 (GF)    ED CD | "G"B,4 (B,2 A,2) ||\
"D"A2 (GF) ED CD | "G"d2 (cd) BA  GF  | "D"A2 (GF) "A"ED CE | "D"D4 D4 :|
"^C"|:\
"D"f3 (f- fd) eg | f2 (ed) c2 d2 | "Em"B4 (B2  c2) | "G"B4 (B2 A2) ||\
"D"f3 (f- fd) eg | f2 (ed) cd ec | d4 (d2 "(A)"e2) | "D"d4 d4 :|
% = = = = = = = = = =
V: 2
"^A"|:\
[A3D3] [A2D2] zz2 | [A3D3] [A2D2] zz2 | D3 D-D2 A,2 | G,4 G,2 A,2 ||\
[A3D3] [A2D2] zz2 | [A3D3] [A2D2] zz2 | D2 (CB,) "A"A,2A,2 | "D"A,4 A,4 :|
"^B"|:\
F2 (ED) CB, A,D | G3 G- G4 | F2 (ED) CB, A,2 | G,4 G,2 A,2 ||\
F2 (ED) CB, A,D | G3 G- G4 | F2 (ED) CB, A,2 | A,4 A,4 :|
"^C"|:\
d3 d- d2 ce | d2 c2 A2 B2 | E4 (E2 F2) | G4 (G2 A2) ||\
d3 d- d2 ce | d2 (cB) A2 A2 | A4 A4 | A4 A4 :|
